X:52
T:I Can No Longer Stifle??. RH.052
R:Air
S:Rev.R.Harrison’s MS,c1815,Cumbria
O:England
A:Temple Sowerby,Cumbria
Z:vmp.Simon Wilson. Review PJH, 2008.
M:2/4
L:1/8
Q:1/4=110
K:G
” Allegro”\
D|G>DG>A|B2B>B|A>GA>B|c2B>A|\
G>DG>A|B>cd>e|d>cB>A|G2G:|!
|:d|g>GG>A|B2B>b|b>AA>B|c2B>A|\
G>DG>A|B>cd>e|d>cB>A|G2G:|

